icons/filled/align-box-left-middle.svg

<svg xmlns="http://www.w3.org/2000/svg" width="24" height="24" viewBox="0 0 24 24" fill="currentColor"><path d="M18.333 2c1.96 0 3.56 1.537 3.662 3.472l.005 .195v12.666c0 1.96 -1.537 3.56 -3.472 3.662l-.195 .005h-12.666a3.667 3.667 0 0 1 -3.662 -3.472l-.005 -.195v-12.666c0 -1.96 1.537 -3.56 3.472 -3.662l.195 -.005h12.666zm-10.333 12h-2l-.117 .007a1 1 0 0 0 .117 1.993h2l.117 -.007a1 1 0 0 0 -.117 -1.993zm4 -3h-6l-.117 .007a1 1 0 0 0 .117 1.993h6l.117 -.007a1 1 0 0 0 -.117 -1.993zm-2 -3h-4l-.117 .007a1 1 0 0 0 .117 1.993h4l.117 -.007a1 1 0 0 0 -.117 -1.993z"/></svg>

<svg xmlns="http://www.w3.org/2000/svg" width="24" height="24" fill="currentColor"><path d="M18.333 2c1.96 0 3.56 1.537 3.662 3.472l.005.195v12.666c0 1.96-1.537 3.56-3.472 3.662l-.195.005H5.667a3.667 3.667 0 0 1-3.662-3.472L2 18.333V5.667c0-1.96 1.537-3.56 3.472-3.662L5.667 2zM8 14H6l-.117.007A1 1 0 0 0 6 16h2l.117-.007A1 1 0 0 0 8 14m4-3H6l-.117.007A1 1 0 0 0 6 13h6l.117-.007A1 1 0 0 0 12 11m-2-3H6l-.117.007A1 1 0 0 0 6 10h4l.117-.007A1 1 0 0 0 10 8"/></svg>
